raw-svg/headphones.svg

<svg fill="none" height="24" viewBox="0 0 24 24" width="24" xmlns="http://www.w3.org/2000/svg"><path clip-rule="evenodd" d="m5.79876 12.5254c.82417.1418 1.45124.86 1.45124 1.7246v3.1743c0 1.1626-1.11283 2.002-2.23076 1.6826l-1.5-.4285c-.75128-.2147-1.26924-.9014-1.26924-1.6827v-2.1276c0-.6629.3745-1.2689.96738-1.5653l1.0533-.5266c.01616-.2287.045-.531.09655-.8844.11559-.7927.34816-1.8624.82065-2.9424.47266-1.08036 1.19737-2.1977 2.31071-3.04597 1.12321-.85578 2.59781-1.40343 4.50141-1.40343s3.3782.54765 4.5014 1.40343c1.1134.84827 1.8381 1.96561 2.3107 3.04597.4725 1.08.7051 2.1497.8207 2.9424.0515.3534.0804.6557.0965.8844l1.0533.5266c.5929.2964.9674.9024.9674 1.5652v2.1277c0 .7813-.518 1.468-1.2692 1.6827l-1.5.4285c-1.118.3194-2.2308-.52-2.2308-1.6826v-3.1743c0-.8646.6271-1.5828 1.4512-1.7246-.0135-.1264-.0307-.2662-.0527-.4171-.1032-.7074-.3081-1.6377-.7106-2.55767-.4024-.91965-.9902-1.80231-1.8456-2.45405-.8455-.64423-1.9959-1.09658-3.5923-1.09658s-2.7468.45235-3.59234 1.09658c-.85541.65174-1.4432 1.5344-1.84554 2.45405-.40251.91997-.60744 1.85027-.7106 2.55767-.022.1509-.03925.2907-.05276.4171zm13.02424 1.4746h-.323c-.1381 0-.25.112-.25.25v3.1743c0 .1661.159.286.3187.2404l1.5-.4286c.1073-.0307.1813-.1288.1813-.2404v-2.1277c0-.0947-.0535-.1812-.1382-.2236zm-13.64595 0-1.28885.6445c-.0847.0423-.1382.1289-.1382.2236v2.1276c0 .1116.07399.2097.18132.2404l1.5.4286c.1597.0456.31868-.0743.31868-.2404v-3.1743c0-.138-.11193-.25-.25-.25z" fill="#000" fill-rule="evenodd"/></svg>

<svg width="24" height="24" viewBox="0 0 24 24" fill="none" xmlns="http://www.w3.org/2000/svg">
<path fill-rule="evenodd" clip-rule="evenodd" d="M5.79876 12.5254C6.62293 12.6672 7.25 13.3854 7.25 14.25V17.4243C7.25 18.5869 6.13717 19.4263 5.01924 19.1069L3.51924 18.6784C2.76796 18.4637 2.25 17.777 2.25 16.9957V14.8681C2.25 14.2052 2.6245 13.5992 3.21738 13.3028L4.27068 12.7762C4.28684 12.5475 4.31568 12.2452 4.36723 11.8918C4.48282 11.0991 4.71539 10.0294 5.18788 8.9494C5.66054 7.86904 6.38525 6.7517 7.49859 5.90343C8.6218 5.04765 10.0964 4.5 12 4.5C13.9036 4.5 15.3782 5.04765 16.5014 5.90343C17.6148 6.7517 18.3395 7.86904 18.8121 8.9494C19.2846 10.0294 19.5172 11.0991 19.6328 11.8918C19.6843 12.2452 19.7132 12.5475 19.7293 12.7762L20.7826 13.3028C21.3755 13.5992 21.75 14.2052 21.75 14.868V16.9957C21.75 17.777 21.232 18.4637 20.4808 18.6784L18.9808 19.1069C17.8628 19.4263 16.75 18.5869 16.75 17.4243V14.25C16.75 13.3854 17.3771 12.6672 18.2012 12.5254C18.1877 12.399 18.1705 12.2592 18.1485 12.1083C18.0453 11.4009 17.8404 10.4706 17.4379 9.55063C17.0355 8.63098 16.4477 7.74832 15.5923 7.09658C14.7468 6.45235 13.5964 6 12 6C10.4036 6 9.2532 6.45235 8.40766 7.09658C7.55225 7.74832 6.96446 8.63098 6.56212 9.55063C6.15961 10.4706 5.95468 11.4009 5.85152 12.1083C5.82952 12.2592 5.81227 12.399 5.79876 12.5254ZM18.823 14H18.5C18.3619 14 18.25 14.112 18.25 14.25V17.4243C18.25 17.5904 18.409 17.7103 18.5687 17.6647L20.0687 17.2361C20.176 17.2054 20.25 17.1073 20.25 16.9957V14.868C20.25 14.7733 20.1965 14.6868 20.1118 14.6444L18.823 14ZM5.17705 14L3.8882 14.6445C3.8035 14.6868 3.75 14.7734 3.75 14.8681V16.9957C3.75 17.1073 3.82399 17.2054 3.93132 17.2361L5.43132 17.6647C5.59102 17.7103 5.75 17.5904 5.75 17.4243V14.25C5.75 14.112 5.63807 14 5.5 14H5.17705Z" fill="black"/>
</svg>
